assets/icons/24px/stroke/rectangle-on-rectangle-horizontal-24px.svg

<svg width="24" height="24" viewBox="0 0 24 24" fill="none" xmlns="http://www.w3.org/2000/svg">
<path fill-rule="evenodd" clip-rule="evenodd" d="M6.93424 2C6.95611 2 6.97806 2 7.00007 2L14.0658 2C14.9523 1.99995 15.7161 1.99991 16.3278 2.08214C16.9833 2.17028 17.6117 2.36902 18.1213 2.87868C18.631 3.38835 18.8297 4.0167 18.9179 4.67221C19.0001 5.28388 19.0001 6.0477 19 6.9342L19 9H17V7C17 6.02893 16.9979 5.40122 16.9357 4.93871C16.8774 4.50497 16.7832 4.36902 16.7071 4.2929C16.631 4.21678 16.495 4.12263 16.0613 4.06431C15.5988 4.00213 14.971 4 13.9999 4H7.00007C6.02897 4 5.40124 4.00213 4.93872 4.06431C4.50497 4.12263 4.36902 4.21678 4.2929 4.2929C4.21677 4.36902 4.12263 4.50497 4.06431 4.93871C4.00213 5.40121 4 6.02893 4 7V11.25C4 12.0964 4.00164 12.6432 4.04984 13.051C4.09543 13.4366 4.17046 13.5655 4.22699 13.6344C4.26855 13.685 4.31498 13.7315 4.36561 13.773C4.4345 13.8296 4.56336 13.9046 4.94904 13.9502C5.35678 13.9984 5.90364 14 6.75 14V16L6.69291 16C5.91985 16 5.25345 16.0001 4.71426 15.9363C4.13977 15.8684 3.58111 15.7165 3.09683 15.319C2.94492 15.1944 2.80564 15.0551 2.68097 14.9032C2.28353 14.4189 2.13157 13.8602 2.06367 13.2857C1.99993 12.7466 1.99996 12.0802 2 11.3071L2 7C2 6.97799 2 6.95604 2 6.93417C1.99995 6.04769 1.99991 5.28387 2.08215 4.67221C2.17028 4.0167 2.36902 3.38835 2.87868 2.87868C3.38835 2.36902 4.01671 2.17028 4.67223 2.08214C5.2839 1.99991 6.04773 1.99995 6.93424 2Z" fill="white"/>
<path fill-rule="evenodd" clip-rule="evenodd" d="M9.93424 8C9.95611 8 9.97806 8 10.0001 8L17.0658 8C17.9523 7.99995 18.7161 7.99991 19.3278 8.08214C19.9833 8.17028 20.6117 8.36902 21.1213 8.87868C21.631 9.38835 21.8297 10.0167 21.9179 10.6722C22.0001 11.2839 22.0001 12.0477 22 12.9342V17.0658C22.0001 17.9523 22.0001 18.7161 21.9179 19.3278C21.8297 19.9833 21.631 20.6117 21.1213 21.1213C20.6117 21.631 19.9833 21.8297 19.3278 21.9179C18.7161 22.0001 17.9523 22.0001 17.0658 22H9.93417C9.04769 22.0001 8.28387 22.0001 7.67221 21.9179C7.0167 21.8297 6.38835 21.631 5.87868 21.1213C5.36902 20.6117 5.17028 19.9833 5.08215 19.3278C4.99991 18.7161 4.99995 17.9523 5 17.0658L5 13C5 12.978 5 12.956 5 12.9342C4.99995 12.0477 4.99991 11.2839 5.08215 10.6722C5.17028 10.0167 5.36902 9.38835 5.87868 8.87868C6.38835 8.36902 7.01671 8.17028 7.67223 8.08214C8.2839 7.99991 9.04773 7.99995 9.93424 8ZM7.93872 10.0643C7.50497 10.1226 7.36902 10.2168 7.2929 10.2929C7.21677 10.369 7.12263 10.505 7.06431 10.9387C7.00213 11.4012 7 12.0289 7 13V17C7 17.9711 7.00213 18.5988 7.06431 19.0613C7.12263 19.495 7.21677 19.631 7.2929 19.7071C7.36902 19.7832 7.50497 19.8774 7.93871 19.9357C8.40121 19.9979 9.02893 20 10 20H17C17.9711 20 18.5988 19.9979 19.0613 19.9357C19.495 19.8774 19.631 19.7832 19.7071 19.7071C19.7832 19.631 19.8774 19.495 19.9357 19.0613C19.9979 18.5988 20 17.9711 20 17V13C20 12.0289 19.9979 11.4012 19.9357 10.9387C19.8774 10.505 19.7832 10.369 19.7071 10.2929C19.631 10.2168 19.495 10.1226 19.0613 10.0643C18.5988 10.0021 17.971 10 16.9999 10H10.0001C9.02897 10 8.40124 10.0021 7.93872 10.0643Z" fill="white"/>
</svg>

<svg width="24" height="24" fill="none" xmlns="http://www.w3.org/2000/svg"><path fill-rule="evenodd" clip-rule="evenodd" d="M6.934 2h7.132c.886 0 1.65 0 2.262.082.655.088 1.284.287 1.793.797.51.51.709 1.138.797 1.793C19 5.284 19 6.048 19 6.934V9h-2V7c0-.971-.002-1.599-.064-2.061-.059-.434-.153-.57-.229-.646-.076-.076-.212-.17-.646-.229C15.6 4.002 14.971 4 14 4H7c-.971 0-1.599.002-2.061.064-.434.059-.57.153-.646.229-.076.076-.17.212-.229.646C4.002 5.4 4 6.029 4 7v4.25c0 .846.002 1.393.05 1.801.045.386.12.514.177.583a1 1 0 0 0 .139.139c.069.057.197.132.583.177.408.048.955.05 1.801.05v2h-.057c-.773 0-1.44 0-1.979-.064-.574-.068-1.133-.22-1.617-.617a2.996 2.996 0 0 1-.416-.416c-.397-.484-.55-1.043-.617-1.617C2 12.746 2 12.08 2 11.307V7v-.066c0-.886 0-1.65.082-2.262.088-.655.287-1.284.797-1.793.51-.51 1.138-.709 1.793-.797C5.284 2 6.048 2 6.934 2z" fill="#fff"/><path fill-rule="evenodd" clip-rule="evenodd" d="M9.934 8h7.132c.886 0 1.65 0 2.262.082.655.088 1.284.287 1.793.797.51.51.709 1.138.797 1.793.082.612.082 1.376.082 2.262v4.132c0 .886 0 1.65-.082 2.262-.088.655-.287 1.284-.797 1.793-.51.51-1.138.709-1.793.797-.612.082-1.376.082-2.262.082H9.934c-.886 0-1.65 0-2.262-.082-.655-.088-1.284-.287-1.793-.797-.51-.51-.709-1.138-.797-1.793C5 18.716 5 17.952 5 17.066V13v-.066c0-.886 0-1.65.082-2.262.088-.655.287-1.284.797-1.793.51-.51 1.138-.709 1.793-.797C8.284 8 9.048 8 9.934 8zM7.94 10.064c-.434.059-.57.153-.646.229-.076.076-.17.212-.229.646C7.002 11.4 7 12.029 7 13v4c0 .971.002 1.599.064 2.061.059.434.153.57.229.646.076.076.212.17.646.229C8.4 19.998 9.029 20 10 20h7c.971 0 1.599-.002 2.061-.064.434-.059.57-.153.646-.229.076-.076.17-.212.229-.646.062-.462.064-1.09.064-2.061v-4c0-.971-.002-1.599-.064-2.061-.059-.434-.153-.57-.229-.646-.076-.076-.212-.17-.646-.229C18.6 10.002 17.971 10 17 10h-7c-.971 0-1.599.002-2.061.064z" fill="#fff"/></svg>
